logos/white/tv.channel4.svg

<?xml version="1.0" encoding="UTF-8" standalone="no"?>
<!-- Created with Inkscape (http://www.inkscape.org/) -->

<svg
   xmlns:dc="http://purl.org/dc/elements/1.1/"
   xmlns:cc="http://creativecommons.org/ns#"
   xmlns:rdf="http://www.w3.org/1999/02/22-rdf-syntax-ns#"
   xmlns:svg="http://www.w3.org/2000/svg"
   xmlns="http://www.w3.org/2000/svg"
   xmlns:inkscape="http://www.inkscape.org/namespaces/inkscape"
   version="1.0"
   width="836"
   height="1116.9399"
   id="svg2351">
  <metadata
     id="metadata2356">
    <rdf:RDF>
      <cc:Work
         rdf:about="">
        <dc:format>image/svg+xml</dc:format>
        <dc:type
           rdf:resource="http://purl.org/dc/dcmitype/StillImage" />
        <dc:title />
      </cc:Work>
    </rdf:RDF>
  </metadata>
  <defs
     id="defs2354" />
  <path
     d="m 207,1046.3189 0,-96.52471 97.14104,0 31.28844,24 0.57052,-186 186.96213,0 L 523.5,691.79368 91.019208,691.79419 90.5,787.94272 0,717.30647 0,620.82115 66.020887,620.29419 26.388854,586.82408 303.61495,231.94016 335.42948,255.79419 336,190.68722 432.56016,66.976954 464.39078,90.794192 465,25.678308 486.08835,0 575.47002,69.745679 556,95.968552 556,252.95027 627.99576,161.79419 651.80349,180.84184 556,306.73709 l 0,681.0571 95.75,0.25 1.29319,-38.25 28.65208,0 89.27498,70.25001 -214.95104,0.75 -0.51921,96.1144 -32.51403,-25.2796 0.0427,-271.33481 -96.02214,-0.5192 -0.50656,297.16491 -31.5,-24.6006 0,-71.5451 -96.98079,0 -0.51921,96.0426 M 377.20711,620.29419 336,588.33235 336.03746,534.29419 395,458.96248 394.10353,303.96086 117,658.23933 l 121.80834,0.55486 29.32148,-37.5 M 427,261.07757 l 0,198.85831 0,198.85831 95.99245,0 0.25377,-260.00001 -0.42686,-259.75 M 653,620.79419 l 93.5,0.0433 87.75,68.3285 1.75,1.86876 -150.98079,0.75945 L 684.5,787.758 653,763.33082"
     inkscape:connector-curvature="0"
     id="path2363"
     style="fill:#ffffff" />
</svg>

<?xml version="1.0" encoding="UTF-8" standalone="no"?>
<!-- Created with Inkscape (http://www.inkscape.org/) -->

<svg
   xmlns:dc="http://purl.org/dc/elements/1.1/"
   xmlns:cc="http://creativecommons.org/ns#"
   xmlns:rdf="http://www.w3.org/1999/02/22-rdf-syntax-ns#"
   xmlns:svg="http://www.w3.org/2000/svg"
   xmlns="http://www.w3.org/2000/svg"
   xmlns:sodipodi="http://sodipodi.sourceforge.net/DTD/sodipodi-0.dtd"
   xmlns:inkscape="http://www.inkscape.org/namespaces/inkscape"
   id="svg2351"
   sodipodi:version="0.32"
   inkscape:version="0.48.4 r9939"
   width="836"
   height="1116.9399"
   version="1.0"
   sodipodi:docname="tv.channel4.svg"
   inkscape:output_extension="org.inkscape.output.svg.inkscape">
  <metadata
     id="metadata2356">
    <rdf:RDF>
      <cc:Work
         rdf:about="">
        <dc:format>image/svg+xml</dc:format>
        <dc:type
           rdf:resource="http://purl.org/dc/dcmitype/StillImage" />
        <dc:title></dc:title>
      </cc:Work>
    </rdf:RDF>
  </metadata>
  <defs
     id="defs2354" />
  <sodipodi:namedview
     inkscape:window-height="837"
     inkscape:window-width="1600"
     inkscape:pageshadow="2"
     inkscape:pageopacity="0.0"
     guidetolerance="10.0"
     gridtolerance="10.0"
     objecttolerance="10.0"
     borderopacity="1.0"
     bordercolor="#666666"
     pagecolor="#ffffff"
     id="base"
     inkscape:zoom="0.35355339"
     inkscape:cx="-15.39295"
     inkscape:cy="359.3357"
     inkscape:window-x="-8"
     inkscape:window-y="-8"
     inkscape:current-layer="svg2351"
     showgrid="false"
     inkscape:window-maximized="1" />
  <path
     style="fill:#ffffff"
     d="M 207,1046.3189 L 207,949.79419 L 304.14104,949.79419 L 335.42948,973.79419 L 336,787.79419 L 522.96213,787.79419 L 523.5,691.79368 L 91.019208,691.79419 L 90.5,787.94272 L 0,717.30647 L 0,620.82115 L 66.020887,620.29419 L 26.388854,586.82408 L 303.61495,231.94016 L 335.42948,255.79419 L 336,190.68722 L 432.56016,66.976954 L 464.39078,90.794192 L 465,25.678308 L 486.08835,-1.2878587e-014 L 575.47002,69.745679 L 556,95.968552 L 556,252.95027 L 627.99576,161.79419 L 651.80349,180.84184 L 556,306.73709 L 556,987.79419 L 651.75,988.04419 L 653.04319,949.79419 L 681.69527,949.79419 L 770.97025,1020.0442 L 556.01921,1020.7942 L 555.5,1116.9086 L 522.98597,1091.629 L 523.0287,820.29419 L 427.00656,819.77499 L 426.5,1116.9399 L 395,1092.3393 L 395,1020.7942 L 298.01921,1020.7942 L 297.5,1116.8368 M 377.20711,620.29419 L 336,588.33235 L 336.03746,534.29419 L 395,458.96248 L 394.10353,303.96086 L 117,658.23933 L 238.80834,658.79419 L 268.12982,621.29419 M 427,261.07757 L 427,459.93588 L 427,658.79419 L 522.99245,658.79419 L 523.24622,398.79418 L 522.81936,139.04418 M 653,620.79419 L 746.5,620.83748 L 834.25,689.16598 L 836,691.03474 L 685.01921,691.79419 L 684.5,787.758 L 653,763.33082"
     id="path2363"
     sodipodi:nodetypes="cccccccccccccccccccccccccccccccccccccccccccccccccccccccccccccc" />
</svg>
